!!!!SEGMENT: Snf0239-Patris_sapientia_veritas_divina.krn
!!!id: Snf0239
!!!AGN: Motet
!!!SCT: Edwards, Gasch, Tröster (2022)
!!!voices: 4
!!!COM: Ludwig Senfl
!!!OTL: Patris sapientia, veritas divina
**kern	**text	**kern	**text	**kern	**text	**kern	**text
*part4	*part4	*part3	*part3	*part2	*part2	*part1	*part1
*staff4	*staff4	*staff3	*staff3	*staff2	*staff2	*staff1	*staff1
*I"Bassus	*	*I"Tenor	*	*I"Altus	*	*I"Superius	*
*I'B	*	*I'T	*	*I'A	*	*I'S	*
*clefF4	*	*clefGv2	*	*clefGv2	*	*clefG2	*
*k[b-]	*	*k[b-]	*	*k[b-]	*	*k[b-]	*
*F:	*	*F:	*	*F:	*	*F:	*
*M2/1	*	*M2/1	*	*M2/1	*	*M2/1	*
*met(C|)	*	*met(C|)	*	*met(C|)	*	*met(C|)	*
!!section: Prima pars: Patris sapientia, veritas divina
!!!OMD: Prima pars: Patris sapientia, veritas divina
=1	=1	=1	=1	=1	=1	=1	=1
0r	.	1A	Pa-	1e	Pa-	1a	Pa-
.	.	2A	-tris	2e	-tris	1a	-tris
.	.	[2F	sa-	[2f	sa-	.	.
=2	=2	=2	=2	=2	=2	=2	=2
0r	.	2F]	.	2f]	.	1a	sa-
.	.	2F	-pi-	2f	-pi-	.	.
.	.	1G	-en-	2d	-en-	1g	-pi-
.	.	.	.	[2e	.	.	.
=3	=3	=3	=3	=3	=3	=3	=3
0r	.	2C	.	4e]	.	1g	-en-
.	.	.	.	4d	.	.	.
.	.	2E	-ti-	1c	.	.	.
.	.	1D	-a,	.	.	1f	-ti-
.	.	.	.	2B-y	-ti-	.	.
=4	=4	=4	=4	=4	=4	=4	=4
1A	Pa-	2r	.	1c	-a,	1e	-a,
.	.	2.A	sa-	.	.	.	.
1A	-tris	.	.	2r	.	2r	.
.	.	4B-y	.	.	.	.	.
.	.	4c	.	[2e	sa-	[2a	sa-
.	.	4A	.	.	.	.	.
=5	=5	=5	=5	=5	=5	=5	=5
1A	sa-	1c	.	4e]	.	4a]	.
.	.	.	.	4d	.	4b-y	.
.	.	.	.	4e	.	4cc	.
.	.	.	.	4f	.	4a	.
1G	-pi-	2d	-pi-	2g	.	2b-y	-pi-
.	.	[2B-y	-en-	2d	-pi-	[2g	-en-
=6	=6	=6	=6	=6	=6	=6	=6
1G	-en-	4B-]	.	2.d	-en-	4g]	.
.	.	4c	.	.	.	4a	.
.	.	4d	.	.	.	4b-y	.
.	.	4B-y	.	4e	.	4g	.
1F	-ti-	2c	.	1f	-ti-	1a	.
.	.	2d	-ti-	.	.	.	.
=7	=7	=7	=7	=7	=7	=7	=7
0E	-a,	1G	-a,	1g	-a,	2g	-ti-
.	.	.	.	.	.	2.e	-a,
.	.	2r	.	2r	.	.	.
.	.	.	.	.	.	4f	.
.	.	2G	ve-	2c	ve-	4g	.
.	.	.	.	.	.	4e	.
=8	=8	=8	=8	=8	=8	=8	=8
1D	ve-	2A	-ri-	2d	-ri-	2f	.
.	.	2B-y	-tas	2f	-tas	2d	ve-
1C	-ri-	1c	.	1e	di-	2e	-ri-
.	.	.	.	.	.	[2g	-tas
=9	=9	=9	=9	=9	=9	=9	=9
1D	-tas	1A	.	2d	-vi-	2g]	.
.	.	.	.	2f	.	2f	di-
1E	di-	2G	.	1e	.	2.g	-vi-
.	.	2c	di-	.	.	.	.
.	.	.	.	.	.	4a	.
=10	=10	=10	=10	=10	=10	=10	=10
[0G	-vi-	2.B-y	-vi-	1d	.	4b-y	.
.	.	.	.	.	.	4cc	.
.	.	.	.	.	.	2dd	.
.	.	4c	.	.	.	.	.
.	.	2d	.	[1g	-na,	2b-y	.
.	.	2B-y	.	.	.	[2dd	.
=11	=11	=11	=11	=11	=11	=11	=11
1G]	.	1.d	.	1g]	.	2dd]	.
.	.	.	.	.	.	4cc	.
.	.	.	.	.	.	4b-y	.
1F	.	.	.	1r	.	1a	.
.	.	[2c	.	.	.	.	.
=12	=12	=12	=12	=12	=12	=12	=12
[0E	-na,	2c]	.	2r	.	0g	-na,
.	.	4B-y	.	1c	Chri-	.	.
.	.	4A	.	.	.	.	.
.	.	1G	-na,	.	.	.	.
.	.	.	.	4B-y	.	.	.
.	.	.	.	4A	.	.	.
=13	=13	=13	=13	=13	=13	=13	=13
0E]	.	2r	.	1G	-stus	2r	.
.	.	2c	Chri-	.	.	1g	Chri-
.	.	2G	.	2c	ho-	.	.
.	.	2c	-stus	2G	.	2e	.
=14	=14	=14	=14	=14	=14	=14	=14
1D	Chri-	1d	ho-	4A	-mo	2f	.
.	.	.	.	4F	.	.	.
.	.	.	.	2f	.	1a	.
1E	-stus	2c	.	1e	ca-	.	.
.	.	2B-y	.	.	.	2g	.
=15	=15	=15	=15	=15	=15	=15	=15
1F	ho-	1A	-mo	1c	-ptus	0a	-stus
1D	-mo	2.d	ca-	[1f	est	.	.
.	.	4c	.	.	.	.	.
=16	=16	=16	=16	=16	=16	=16	=16
1D	ca-	4B-y	.	1f]	.	2r	.
.	.	4A	.	.	.	.	.
.	.	1A	.	.	.	2a	ho-
1BB-y	-ptus	.	.	2.d	ho-	1dd	-mo
.	.	2G	-ptus	.	.	.	.
.	.	.	.	4e	.	.	.
=17	=17	=17	=17	=17	=17	=17	=17
0AA	est	1A	est	2f	.	2.cc	ca-
.	.	.	.	2.e	.	.	.
.	.	.	.	.	.	4b-y	.
.	.	2r	.	.	.	4a	.
.	.	.	.	4d	.	4g	.
.	.	2c	ho-	4e	.	2a	.
.	.	.	.	4f	.	.	.
=18	=18	=18	=18	=18	=18	=18	=18
1GG	ho-	2d	.	2g	.	2b-y	.
.	.	2B-y	-ra	2d	.	2g	-ptus
1FF	-ra	2c	ma-	2f	.	4a	est
.	.	.	.	.	.	4g	.
.	.	2A	.	2c	-ra	4f	.
.	.	.	.	.	.	4e	.
=19	=19	=19	=19	=19	=19	=19	=19
1GG	ma-	4B-y	-tu-	2r	.	1d	ho-
.	.	4A	.	.	.	.	.
.	.	4G	.	2B-y	ma-	.	.
.	.	4F	.	.	.	.	.
1AA	-tu-	2E	.	1A	.	2c	-ra
.	.	[2e	-ti-	.	.	[2cc	ma-
=20	=20	=20	=20	=20	=20	=20	=20
[0C	-ti-	4e]	.	2G	-tu-	4cc]	.
.	.	4d	.	.	.	4b-y	.
.	.	4c	.	2E	-ti-	4a	.
.	.	4B-y	.	.	.	4g	.
.	.	2c	.	1e	-na,	2a	.
.	.	4B-y	.	.	.	[2g	-tu-
.	.	4A	.	.	.	.	.
=21	=21	=21	=21	=21	=21	=21	=21
1C]	.	2G	.	1r	.	2g]	.
.	.	1A	.	.	.	4f	.
.	.	.	.	.	.	4e	.
1BB-y	.	.	.	2r	.	2d	.
.	.	2G	.	2d	ma-	2dd	-ti-
=22	=22	=22	=22	=22	=22	=22	=22
[0AA	-na,	[0A	-na,	2f	-tu-	2.cc	.
.	.	.	.	2.e	-ti-	.	.
.	.	.	.	.	.	4b-y	.
.	.	.	.	.	.	4a	.
.	.	.	.	4d	.	4g	.
.	.	.	.	4c	.	[2a	.
.	.	.	.	4B-y	.	.	.
=23	=23	=23	=23	=23	=23	=23	=23
0AA]	.	1A]	.	4c	.	2a]	.
.	.	.	.	4A	.	.	.
.	.	.	.	1d	-na,	4g	.
.	.	.	.	.	.	4f	.
.	.	2r	.	.	.	1e	.
.	.	2A	a	2c#i	a	.	.
=24	=24	=24	=24	=24	=24	=24	=24
1D	a	4B-y	su-	2.d	su-	2d	-na,
.	.	4A	.	.	.	.	.
.	.	1d	.	.	.	2a	a
.	.	.	.	4e	.	.	.
1D	su-	.	.	1f	.	2b-y	su-
.	.	4c	.	.	.	[2a	.
.	.	4B-y	.	.	.	.	.
=25	=25	=25	=25	=25	=25	=25	=25
1D	-is	2A	.	1d	-is	2a]	.
.	.	2B-y	.	.	.	4g	.
.	.	.	.	.	.	4f	.
1C	di-	1c	-is	2r	.	1e	.
.	.	.	.	2e	di-	.	.
=26	=26	=26	=26	=26	=26	=26	=26
1BB-y	-sci-	1r	.	2f	-sci-	1d	-is
.	.	.	.	1g	.	.	.
1AA	-pu-	2r	.	.	.	2r	.
.	.	2c	di-	2f#i	-pu-	2a	di-
=27	=27	=27	=27	=27	=27	=27	=27
0GG	-lis	2d	-sci-	[0g	-lis	2b-y	-sci-
.	.	1e	.	.	.	1cc	.
.	.	2d	-pu-	.	.	2b-y	-pu-
=28	=28	=28	=28	=28	=28	=28	=28
1C	ci-	4e	-lis	1g]	.	4cc	-lis
.	.	4c	.	.	.	4g	.
.	.	2.e	ci-	.	.	2.cc	ci-
1C	-to	.	.	2r	.	.	.
.	.	4d	.	.	.	4b-y	.
.	.	4c	.	2e	ci-	4a	.
.	.	4B-y	.	.	.	4g	.
=29	=29	=29	=29	=29	=29	=29	=29
1D	de-	1A	.	2d	-to	1f	.
.	.	.	.	2f	de-	.	.
1E	-re-	2G	-to	1e	-re-	1g	-to
.	.	2c	de-	.	.	.	.
=30	=30	=30	=30	=30	=30	=30	=30
[0G	-li-	2B-y	-re-	2.d	-li-	2r	.
.	.	2G	.	.	.	2.dd	de-
.	.	.	.	4c	.	.	.
.	.	2.d	-li-	4B-y	.	.	.
.	.	.	.	4A	.	4cc	.
.	.	.	.	4G	.	4b-y	.
.	.	4c	.	4A	.	4a	.
=31	=31	=31	=31	=31	=31	=31	=31
1G]	.	4B-y	.	4B-y	.	1g	.
.	.	4A	.	4c	.	.	.
.	.	2G	.	4d	.	.	.
.	.	.	.	4e	.	.	.
1F	.	2.c	.	1f	.	1a	-re-
.	.	4d	.	.	.	.	.
=32	=32	=32	=32	=32	=32	=32	=32
[0E	-ctus,	2e	.	2g	.	2r	.
.	.	2c	.	2G	-ctus,	2.g	-li-
.	.	1G	-ctus,	2r	.	.	.
.	.	.	.	.	.	4f	.
.	.	.	.	[2g	Ju-	4e	.
.	.	.	.	.	.	4d	.
=33	=33	=33	=33	=33	=33	=33	=33
0E]	.	2r	.	4g]	.	2c	-ctus,
.	.	.	.	4f	.	.	.
.	.	2G	de-	4e	.	1g	Ju-
.	.	.	.	4d	.	.	.
.	.	2G	-re-	1c	-dae-	.	.
.	.	2G	-li-	.	.	2e	-dae-
=34	=34	=34	=34	=34	=34	=34	=34
1D	Ju-	1A	-ctus,	2d	-is	2f	-is
.	.	.	.	2f	est	2a	est
1E	-dae-	2r	.	4e	.	4g	tra-
.	.	.	.	4d	.	4f	.
.	.	[2c	Ju-	4c	.	4e	.
.	.	.	.	4B-y	.	4d	.
=35	=35	=35	=35	=35	=35	=35	=35
1F	-is	4c]	.	1A	.	1c	-di-
.	.	4B-y	.	.	.	.	.
.	.	4A	.	.	.	.	.
.	.	4G	.	.	.	.	.
1D	est	2F	-dae-	2A	tra-	1d	-tus,
.	.	[2A	-is	[2F	.	.	.
=36	=36	=36	=36	=36	=36	=36	=36
1D	tra-	4A]	.	4F]	.	2d	ven-
.	.	4G	.	4G	.	.	.
.	.	4F	.	1A	.	1f	.
.	.	4E	.	.	.	.	.
1BB-y	-di-	1D	est	.	.	.	.
.	.	.	.	2G	-di-	4e	.
.	.	.	.	.	.	4d	.
=37	=37	=37	=37	=37	=37	=37	=37
0AA	-tus,	2E	tra-	0A	-tus,	2c	.
.	.	2F	.	.	.	1d	.
.	.	2E	-di-	.	.	.	.
.	.	2A	-tus,	.	.	2c	.
=38	=38	=38	=38	=38	=38	=38	=38
1GG	ven-	1B-y	ven-	2r	.	2d	.
.	.	.	.	2d	ven-	1dd	.
1FF	-di-	1A	-di-	1f	.	.	.
.	.	.	.	.	.	[2cc	.
=39	=39	=39	=39	=39	=39	=39	=39
1GG	-tus	1G	-tus	2e	.	2cc]	.
.	.	.	.	2d	.	2b-y	-di-
1AA	et	2r	.	2.c	-di-	1cc	-tus
.	.	2c	et	.	.	.	.
.	.	.	.	4d	.	.	.
=40	=40	=40	=40	=40	=40	=40	=40
[0C	af-	2G	.	0e	-tus	2r	.
.	.	2c	.	.	.	2cc	et
.	.	2r	.	.	.	2g	.
.	.	2c	af-	.	.	2cc	.
=41	=41	=41	=41	=41	=41	=41	=41
1C]	.	2G	-fli-	2r	.	2r	.
.	.	1A	.	2e	et	2cc	af-
1BB-y	-fli-	.	.	2.d	af-	1dd	-fli-
.	.	2G	.	.	.	.	.
.	.	.	.	4e	.	.	.
=42	=42	=42	=42	=42	=42	=42	=42
[0AA	-ctus.	2A	-ctus,	2f	-fli-	1cc	-ctus,
.	.	2A	et	2.e	.	.	.
.	.	2E	.	.	.	2r	.
.	.	.	.	4d	.	.	.
.	.	2A	.	4c	.	2a	[et
.	.	.	.	4B-y	.	.	.
=43	=43	=43	=43	=43	=43	=43	=43
0AA]	.	2r	.	[0c	-ctus,	2e	.
.	.	2A	af-	.	.	2a	.
.	.	2E	-fli-	.	.	2r	.
.	.	[2A	.	.	.	2a	af-
=44	=44	=44	=44	=44	=44	=44	=44
0r	.	2A]	.	1c]	.	2e	.
.	.	2F	.	.	.	1a	.
.	.	1G	.	1B-y	et	.	.
.	.	.	.	.	.	2g	-fli-
=45	=45	=45	=45	=45	=45	=45	=45
[0AAl	-ctus.	2E	.	2.A	af-	1a	-ctus,]
.	.	1A	.	.	.	.	.
.	.	.	.	4B-y	.	.	.
.	.	.	.	1c	-fli-	2r	.
.	.	2E	.	.	.	[2a	af-
=46	=46	=46	=46	=46	=46	=46	=46
0AA_	.	[0Al	-ctus.	[0cl	-ctus.	2a]	.
.	.	.	.	.	.	2e	.
.	.	.	.	.	.	2a	.
.	.	.	.	.	.	2e	-fli-
=47	=47	=47	=47	=47	=47	=47	=47
00AA]	.	00A]	.	00c]	.	00al	-ctus.
==	==	==	==	==	==	==	==
*-	*-	*-	*-	*-	*-	*-	*-
!!!system-decoration: [*]
!!!RDF**kern: i = editorial accidental
!!!RDF**kern: l = terminal long
!!!PTL: <i> New Senfl Edition: Motets for Four Voices (N-V) </i>
!!!PPR: Hollitzer Verlag
!!!PC#: Denkmäler der Tonkunst in Österreich 163.2
!!!PDT: 2022
!!!PED: Scott Lee Edwards, Stefan Gasch, and Sonja Tröster
!!!YEC: Copyright 2022 Denkmäler der Tonkunst in Österreich
!!!YEM: CC-BY-NC 4.0 (https://creativecommons.org/licenses/by-nc/4.0/legalcode)
!!!EED: Benjamin Ory
!!!EEV: 2024/2/4
!!!verovio: header true
!!!header-left: @{PTL}\n@{PED}, eds.\n@{PC#} (@{PDT})&nbsp;\n
!!!header-right:
!!!header-center:
